!!!!SEGMENT: pl-kk--kk-i-6--004_anonim--beata-viscera-maria.krn
!!!cenid: 16xx:959
!!!COM: Anonim
!!!COM-rismid: pe30004985
!!!CDT:
!!!CNT:
!!!OTL: Beata viscera Maria
!!!PDT:
!!!AGN: Sacred
!!!SMS-siglum: PL-Kk
!!!SMS-shelfmark: Kk.I.6
!!!SMS-shelfwork: 004 W
!!!SMS-variant:
!!!SMS-altvar:
!!!NIFC-rismid: 1001135575
!!!URL-scan: http://repozytorium.nifc.pl/skany/pl-kk-nut--i-6
!!!ONB-nifc: UWAGA: C (skan 0004-0005, s. 5-6), T (skan 0102, s. 8-9), B (skan 0213-0214, s. 7-8) Następny utwór: Vultum tuum
**kern	**text	**kern	**text	**kern	**text
*part3	*part3	*part2	*part2	*part1	*part1
*staff3	*staff3	*staff2	*staff2	*staff1	*staff1
*I"Baſsus.	*	*I"Tenor.	*	*I"Cantus.	*
*I'B	*	*I'T	*	*I'S	*
*clefF4	*	*clefC4	*	*clefC4	*
*k[]	*	*k[]	*	*k[]	*
*d:dor	*	*d:dor	*	*d:dor	*
*M2/1	*	*M2/1	*	*M2/1	*
*met(C|)	*	*met(C|)	*	*met(C|)	*
=1-	=1-	=1-	=1-	=1-	=1-
!LO:TX:a:t=Communio.	!	!LO:TX:a:t=Communio.	!	!LO:TX:a:t=Commu\nnio.	!
1AA	BE-	2E/	Be-	1C	Be-
.	.	2F/	-a-	.	.
1GG	-a-	1G	-ta	1D	-a-
=2-	=2-	=2-	=2-	=2-	=2-
*	*	*	*	*lig	*
1FF	-ta	2A/	Vi-	1F	-ta
.	.	2A/	-sce-	.	.
!	!	!	!	!LO:TX:a:t=P:problem:oddech jako rozdzielacz słów:global	!
2.C/	Vi-	2G/	.	1E,<	.
.	.	2G/	-ra	.	.
4BB/	.	.	.	.	.
*	*	*	*	*Xlig	*
=3-	=3-	=3-	=3-	=3-	=3-
*	*	*	*ij	*lig	*
2AA/	.	2A/	Be-	1F	Vi-
2AA/	-sce-	1c	-a-	.	.
0GG	-ra	.	.	1G	.
.	.	4B\	-ta	.	.
.	.	4A/	.	.	.
*	*	*	*	*Xlig	*
=4-	=4-	=4-	=4-	=4-	=4-
*	*	*	*	*lig	*
.	.	2B\	Vi-	1G	-sce-
.	.	2B\	-sce-	.	.
*	*ij	*	*	*	*
1D	Be-	2A/	-ra	1F	.
*	*	*	*Xij	*	*
.	.	2.A/	Vi-	.	.
*	*	*	*	*Xlig	*
=5-	=5-	=5-	=5-	=5-	=5-
*	*	*	*	*lig	*
2E\	-a-	.	.	1E	.
!	!	!LO:SIC:v:t=custos G	!	!	!
.	.	4G/	.	.	.
!	!	!LO:LB:g=original	!	!	!
2C/	-ta	2.G/	.	.	.
2D/	Vi-	.	.	1D	.
.	.	4F/	.	.	.
2DD/	-sce-	2F/	-sce-	.	.
*	*	*	*	*Xlig	*
=6-	=6-	=6-	=6-	=6-	=6-
!LO:TX:a:t=P:problem:oddech jako rozdzielacz słów:global	!	!	!	!	!
2AA,</	-ra	0A	-ra	1E	.
*	*Xij	*	*	*	*
!LO:SIC:v:t=custos D	!	!	!	!	!
2AA/	Be-	.	.	.	.
!LO:LB:g=original	!	!	!	!	!
*	*	*	*	*lig	*
2D/	-a-	.	.	1F	-ra
2D/	-ta	.	.	.	.
=7-	=7-	=7-	=7-	=7-	=7-
!	!	!	!	!LO:SIC:v:t=custos F	!
2GG/	Vi-	2.d\	Ma-	1D,<	.
2GG/	-sce-	.	.	.	.
.	.	4c\	.	.	.
*	*	*	*	*Xlig	*
!	!	!	!	!LO:LB:g=original	!
1D	-ra	4d\	.	1F	Ma-
.	.	4e\	.	.	.
.	.	2f\	.	.	.
=8-	=8-	=8-	=8-	=8-	=8-
*	*	*	*	*lig	*
1rD	.	2e\	ri-	1G	-ri-
.	.	1d	-ae	.	.
1AA	Ma-	.	.	1A	.
.	.	2c\	Vir-	.	.
*	*	*	*	*Xlig	*
=9-	=9-	=9-	=9-	=9-	=9-
*	*	*	*	*lig	*
1D	-ri-	2.d\	.	1A	-a
.	.	4c\	.	.	.
1GG	-ae	2B-X\	gi-	1G	.
.	.	2B-\	-nis	.	.
*	*	*	*	*Xlig	*
=10-	=10-	=10-	=10-	=10-	=10-
0D	Vir-	4A/	Vir-	1F,<	.
.	.	4G/	.	.	.
.	.	4A/	.	.	.
!	!	!LO:SIC:v:t=custos A	!	!	!
.	.	4B-X\	.	.	.
!	!	!LO:LB:g=original	!	!	!
*	*	*	*	*lig	*
.	.	2A/	.	1F	Vir-
.	.	1F	.	.	.
=11-	=11-	=11-	=11-	=11-	=11-
1C	-gi-	.	.	1G	.
.	.	2E/	-gi-	.	.
*	*	*	*	*Xlig	*
*	*	*	*	*lig	*
1F	-nis	2F/	-nis	1A	.
*	*	*	*ij	*	*
.	.	1c	Vir-	.	.
=12-	=12-	=12-	=12-	=12-	=12-
2r	.	.	.	1G	.
*	*ij	*	*	*	*
2G\	Ma-	4Bny\	.	.	.
.	.	4c\	.	.	.
*	*	*	*	*Xlig	*
*	*	*	*	*lig	*
2G\	-ri-	1d	-gi-	1A	.
2F\	-ae	.	.	.	.
=13-	=13-	=13-	=13-	=13-	=13-
2G\	Vir-	1.d	-nis	1B-X	.
*	*	*	*Xij	*	*
!LO:SIC:v:t=custos D	!	!	!	!	!
2G\	-gi-	.	.	.	.
*	*	*	*	*Xlig	*
!LO:LB:g=original	!	!	!	!	!
2D,</	-nis	.	.	1A	-gi-
*	*Xij	*	*	*	*
1D	Ma-	2d\	quae	.	.
=14-	=14-	=14-	=14-	=14-	=14-
.	.	2A/	por-	1A,<	-nis
2C/	-ri-	2c\	-ta-	.	.
2D/	-ae	2B\	-ue-	1F,<	quae
2F\	Vir-	2A/	-runt	.	.
=15-	=15-	=15-	=15-	=15-	=15-
*	*	*	*ij	*lig	*
1E	-gi-	1B	quae	1G	por-
*	*	*	*ij	*	*
!	!	!LO:TX:t=P:problem:kreska pseudotaktowa	!	!	!
1AA,<	-nis	1.c	por-	1A	.
*	*	*	*	*Xlig	*
=16-	=16-	=16-	=16-	=16-	=16-
*	*	*	*	*lig	*
1AA	quae	.	.	1A	-ta-
!	!	!LO:TX:t=P:problem:kreska pseudotaktowa	!	!	!
!	!	!LO:TX:t=P:problem:przekreślona synkopowana wartość	!	!	!
.	.	1.A	-ta-	.	.
!	!	!	!	!LO:SIC:v:t=custos G	!
1D	por-	.	.	1F	.
*	*	*	*	*Xlig	*
!	!	!	!	!LO:PB:g=original	!
=17-	=17-	=17-	=17-	=17-	=17-
*	*	*	*	*lig	*
!	!	!LO:SIC:v:t=custos B	!	!	!
1GG	-ta-	1B-X	-ue-	1G	.
!	!	!LO:LB:g=original	!	!	!
1D	-ue-	2B-\	-runt	1F	.
.	.	2.A/	por-	.	.
*	*	*	*	*Xlig	*
=18-	=18-	=18-	=18-	=18-	=18-
1AA	-runt	.	.	1E	.
.	.	4G/	.	.	.
.	.	2E/	-ta-	.	.
*	*ij	*	*	*lig	*
2rC	.	2.F/	-ue-	1D	-ue-
2D/	quae	.	.	.	.
.	.	4G/	.	.	.
=19-	=19-	=19-	=19-	=19-	=19-
2D/	por-	1A	-runt	1F	.
2D/	-ta-	.	.	.	.
*	*	*	*Xij	*Xlig	*
*	*	*	*	*lig	*
2C/	-ue-	2r	.	1E	.
2AA,</	-runt	1A	quae	.	.
*	*Xij	*	*	*	*
=20-	=20-	=20-	=20-	=20-	=20-
!LO:SIC:v:t=custos GG	!	!	!	!	!
1D	por-	.	.	1F	.
.	.	2A/	por-	.	.
*	*	*	*	*Xlig	*
!LO:PB:g=original	!	!	!	!	!
*	*	*	*	*lig	*
2GG/	-ta-	2G/	-ta-	1E	-runt
2AA/	-ue-	2E/	-ue-	.	.
=21-	=21-	=21-	=21-	=21-	=21-
0D,<	-runt	0F	-runt	1D	.
*	*	*	*	*Xlig	*
.	.	.	.	1A	ae-
=22-	=22-	=22-	=22-	=22-	=22-
*	*	*	*	*lig	*
0AA	ae-	1A	ae-	1c	-ter-
.	.	2.c\	-ter-	1A	.
.	.	4d\	.	.	.
*	*	*	*	*Xlig	*
=23-	=23-	=23-	=23-	=23-	=23-
*lig	*	*	*	*lig	*
1C	-ter-	2e\	-ni	1G	.
.	.	2e\	Pa-	.	.
1AA	.	1c	-tris	1A	.
*Xlig	*	*	*	*Xlig	*
!	!	!LO:LB:g=original	!	!	!
=24-	=24-	=24-	=24-	=24-	=24-
*lig	*	*	*	*	*
1GG	.	2.G/	Fi-	1B-X	.
.	.	4F/	.	.	.
1AA	.	2E/	.	1A,<	-ni
.	.	1A	-li-	.	.
*Xlig	*	*	*	*	*
=25-	=25-	=25-	=25-	=25-	=25-
*	*	*	*	*lig	*
1BB-X	.	.	.	1D	Pa-
.	.	2G/	.	.	.
!	!	!LO:TX:t=P:problem:kreska pseudotaktowa	!	!LO:SIC:v:t=custos F	!
1AA	-ni	1A	-um	1C	.
*	*	*	*	*Xlig	*
!	!	!	!	!LO:LB:g=original	!
=26-	=26-	=26-	=26-	=26-	=26-
*	*	*	*	*lig	*
1D	Pa-	2r	.	1F	.
.	.	2f\	ae-	.	.
1GG	-tris	2e\	-ter-	1G	.
.	.	1d	-ni	.	.
*	*	*	*	*Xlig	*
=27-	=27-	=27-	=27-	=27-	=27-
*	*	*	*	*lig	*
0rD	.	.	.	1A	.
.	.	2c\	Pa-	.	.
!	!	!LO:TX:t=P:problem:kreska pseudotaktowa	!	!	!
.	.	0d	-tris	1G	.
*	*	*	*	*Xlig	*
=28-	=28-	=28-	=28-	=28-	=28-
*	*	*	*	*lig	*
1D	ae-	.	.	1F	-tris
2C/	-ter-	2r	.	1E,<	.
!LO:SIC:v:t=custos C	!	!	!	!	!
2AA/	-ni	2A/	ae-	.	.
*	*	*	*	*Xlig	*
!LO:LB:g=original	!	!	!	!	!
=29-	=29-	=29-	=29-	=29-	=29-
*	*	*	*	*lig	*
2rC	.	2G/	-ter-	1C	Fi-
!	!	!LO:TX:t=P:problem:kreska pseudotaktowa	!	!	!
!	!	!LO:SIC:v:t=custos G	!	!	!
2C/	ae-	2E/	-ni	.	.
!	!	!LO:PB:g=original	!	!	!
2BB-X/	-ter-	2r	.	1D	.
2GG/	-ni	2G/	ae-	.	.
*	*	*	*	*Xlig	*
=30-	=30-	=30-	=30-	=30-	=30-
*	*	*	*	*lig	*
1BB-X	ae-	2F/	-ter-	1D	-li-
.	.	2D/	-ni	.	.
2AA/	-ter-	1A	Pa-	1F	.
2FF/	-ni	.	.	.	.
*	*	*	*	*Xlig	*
=31-	=31-	=31-	=31-	=31-	=31-
*	*	*	*	*lig	*
2.AA/	Pa-	1A	-tris	1E	.
4GG/	.	.	.	.	.
2FF/	.	1.A	fi-	1F	.
2DD/	-tris	.	.	.	.
*	*	*	*	*Xlig	*
=32-	=32-	=32-	=32-	=32-	=32-
*	*	*	*	*lig	*
1.AA	Fi-	.	.	1E	-um.
.	.	2A/	-li-	.	.
.	.	1A	-um	[1Dl;;	.
2AA/	-li-	.	.	.	.
*	*	*	*	*Xlig	*
=33-	=33-	=33-	=33-	=33-	=33-
1D	-um	2r	.	0D_	.
*	*	*	*ij	*	*
.	.	2A/	ae-	.	.
2r	.	2B-X\	ter-	.	.
2A\	ae-	2A/	-ni	.	.
=34-	=34-	=34-	=34-	=34-	=34-
2B-X\	-ter-	2G/	Pa-	0D_	.
!LO:SIC:v:t=custos G	!	!	!	!	!
2A\	-ni	2F/	.	.	.
!LO:LB:g=original	!	!	!	!	!
2G\	Pa-	2G/	.	.	.
2D\	-tris	2A/	.	.	.
=35-	=35-	=35-	=35-	=35-	=35-
2GG/	Pa-	2B-\	.	0D_	.
2D/	-tris	2A/	-tris	.	.
2.GG/	Fi-	2.G/	fi-	.	.
4GG/	-li-	4G/	-li-	.	.
=36-	=36-	=36-	=36-	=36-	=36-
0D;;	-um.	0F#Xl;;	-um	0D]	.
*	*	*	*Xij	*	*
==	==	==	==	==	==
*-	*-	*-	*-	*-	*-
!!!system-decoration: [s1,s2,s3]
!!!RDF**kern: < = below
!!!RDF**kern: l = terminal long
!!!ENC: Marta Lawrence
!!!END: 2021-03-21
!!!ENC: Krzysztof Stępień
!!!END: 2021-03-06
